Newaita-dark/.DP/22/teamviewer-indicator-away.svg

<svg xmlns="http://www.w3.org/2000/svg" xmlns:xlink="http://www.w3.org/1999/xlink" width="22px" height="22px" viewBox="0 0 22 22" version="1.1">
<g id="surface1">
<path style=" stroke:none;fill-rule:nonzero;fill:rgb(93.333334%,93.333334%,93.333334%);fill-opacity:1;" d="M 10.914062 2.898438 C 6.378906 2.898438 2.726562 6.550781 2.726562 11.085938 C 2.726562 15.621094 6.378906 19.273438 10.914062 19.273438 C 12.277344 19.273438 13.558594 18.945312 14.6875 18.359375 L 14.554688 18.359375 L 14.558594 18.359375 C 13.808594 18.371094 13.179688 17.753906 13.179688 17 C 13.179688 16.246094 13.808594 15.628906 14.558594 15.640625 L 14.554688 15.640625 L 16.453125 15.640625 C 16.347656 15.355469 16.335938 15.039062 16.4375 14.738281 C 16.621094 14.191406 17.136719 13.816406 17.710938 13.8125 C 18.011719 13.808594 18.300781 13.902344 18.539062 14.082031 C 18.902344 13.15625 19.101562 12.144531 19.101562 11.085938 C 19.101562 6.550781 15.449219 2.898438 10.914062 2.898438 Z M 13.179688 7.898438 C 13.425781 7.898438 13.660156 7.996094 13.828125 8.171875 L 16.101562 10.445312 C 16.457031 10.800781 16.457031 11.375 16.101562 11.726562 L 13.828125 14 C 13.601562 14.234375 13.265625 14.328125 12.949219 14.242188 C 12.632812 14.160156 12.386719 13.914062 12.304688 13.601562 C 12.222656 13.285156 12.316406 12.949219 12.546875 12.71875 L 13.28125 11.988281 C 13.25 11.992188 13.21875 11.992188 13.191406 11.992188 L 8.550781 11.992188 L 9.28125 12.71875 C 9.515625 12.949219 9.609375 13.285156 9.523438 13.601562 C 9.441406 13.914062 9.195312 14.160156 8.878906 14.242188 C 8.566406 14.328125 8.226562 14.234375 8 14 L 5.726562 11.726562 C 5.371094 11.375 5.371094 10.800781 5.726562 10.445312 L 8 8.171875 C 8.164062 8.003906 8.386719 7.90625 8.625 7.898438 C 8.996094 7.886719 9.339844 8.105469 9.484375 8.449219 C 9.628906 8.792969 9.550781 9.195312 9.28125 9.453125 L 8.550781 10.183594 L 13.191406 10.183594 C 13.21875 10.183594 13.25 10.183594 13.28125 10.183594 L 12.546875 9.453125 C 12.285156 9.195312 12.203125 8.804688 12.339844 8.464844 C 12.480469 8.121094 12.8125 7.898438 13.179688 7.898438 Z M 14.101562 11.007812 C 14.109375 11.0625 14.109375 11.113281 14.105469 11.167969 L 14.183594 11.085938 Z M 17.722656 14.722656 C 17.53125 14.722656 17.359375 14.84375 17.300781 15.027344 C 17.238281 15.210938 17.296875 15.410156 17.449219 15.527344 C 17.453125 15.53125 17.453125 15.53125 17.457031 15.53125 L 17.679688 15.710938 C 17.851562 15.460938 18.007812 15.203125 18.148438 14.933594 L 18.019531 14.828125 C 18.015625 14.824219 18.015625 14.824219 18.011719 14.824219 C 17.933594 14.757812 17.828125 14.71875 17.722656 14.722656 Z M 14.546875 16.546875 C 14.289062 16.542969 14.089844 16.742188 14.089844 17 C 14.089844 17.257812 14.289062 17.453125 14.546875 17.449219 C 14.546875 17.449219 14.550781 17.449219 14.554688 17.449219 L 16.078125 17.449219 C 16.414062 17.175781 16.734375 16.875 17.023438 16.546875 L 14.554688 16.546875 C 14.550781 16.546875 14.546875 16.546875 14.546875 16.546875 Z M 14.546875 16.546875 "/>
<path style=" stroke:none;fill-rule:nonzero;fill:rgb(93.333334%,93.333334%,93.333334%);fill-opacity:1;" d="M 17.71875 14.265625 C 17.332031 14.269531 16.992188 14.519531 16.867188 14.882812 C 16.746094 15.25 16.867188 15.652344 17.171875 15.886719 L 17.429688 16.09375 L 14.554688 16.09375 C 14.226562 16.089844 13.921875 16.261719 13.757812 16.542969 C 13.59375 16.824219 13.59375 17.171875 13.757812 17.457031 C 13.921875 17.738281 14.226562 17.910156 14.554688 17.90625 L 17.429688 17.90625 L 17.171875 18.109375 C 16.914062 18.3125 16.78125 18.636719 16.832031 18.957031 C 16.878906 19.28125 17.097656 19.554688 17.402344 19.671875 C 17.707031 19.789062 18.050781 19.734375 18.304688 19.527344 L 20.578125 17.707031 C 20.792969 17.535156 20.917969 17.273438 20.917969 17 C 20.917969 16.722656 20.792969 16.464844 20.578125 16.292969 L 18.304688 14.472656 C 18.136719 14.335938 17.929688 14.265625 17.71875 14.265625 Z M 17.71875 14.265625 "/>
</g>
</svg>

<svg xmlns="http://www.w3.org/2000/svg" width="22pt" height="22pt" viewBox="0 0 22 22"><g fill="#bdbdbd"><path d="M10.914 2.902a8.164 8.164 0 0 0-8.184 8.184 8.167 8.167 0 0 0 8.184 8.187 8.147 8.147 0 0 0 3.774-.914h-.133.004A1.367 1.367 0 0 1 13.179 17c0-.754.63-1.371 1.38-1.36h-.004 1.898a1.349 1.349 0 0 1-.015-.902c.183-.547.699-.918 1.273-.925.3-.004.59.09.828.269a8.188 8.188 0 0 0 .563-2.996 8.167 8.167 0 0 0-8.188-8.184zm2.266 4.996c.246 0 .48.098.648.274l2.274 2.273a.903.903 0 0 1 0 1.282L13.828 14a.906.906 0 0 1-.879.246.91.91 0 0 1-.644-.644.906.906 0 0 1 .246-.88l.73-.734c-.031.004-.062.004-.094.004H8.556l.726.73a.895.895 0 0 1 .242.88.91.91 0 0 1-.644.644A.91.91 0 0 1 8 14l-2.273-2.273a.91.91 0 0 1 0-1.282L8 8.172a.912.912 0 0 1 .625-.274.903.903 0 0 1 .86.551.908.908 0 0 1-.204 1.004l-.726.73h4.633a.377.377 0 0 1 .093.005l-.73-.735a.906.906 0 0 1 .629-1.555zm.922 3.11c.007.05.007.105.003.156l.079-.078zm3.62 3.715a.44.44 0 0 0-.421.304.445.445 0 0 0 .156.504l.223.18c.172-.25.328-.508.468-.777l-.128-.106c-.004 0-.004-.004-.008-.004a.436.436 0 0 0-.29-.101zm-3.175 1.824a.445.445 0 0 0-.457.453c0 .258.2.453.457.45h1.531c.336-.274.652-.575.945-.903h-2.476zm0 0"/><path d="M17.719 14.266a.906.906 0 0 0-.547 1.621l.258.207h-2.875a.91.91 0 0 0-.797.449.91.91 0 0 0 0 .914.91.91 0 0 0 .797.45h2.875l-.258.206a.903.903 0 0 0 .23 1.559.901.901 0 0 0 .899-.145l2.277-1.82a.908.908 0 0 0 0-1.414l-2.277-1.82a.907.907 0 0 0-.582-.207zm0 0"/></g></svg>
